X:295
T: Priscilla's
M: 4/4
L: 1/8
S: Luke O'Malley Volume 1
Z: B. Black
R: reel
K: G
dedB cBAB | G2 BG DGBG | A^GAB cBA=G | EAA^G ABcA |
dedB cBAB | G2 BG DGBG | A^GAB cdef | gdcA BGG2 :|
dggf gdBd | eaa^g a=geg | (3fed ad bdad | gage dcBc |
dggf gdBd | eaa^g a=geg | gage dcBc | (3ded cA BGG2 :|
